X: 061911
T: Family Dinner HP
T: "Cothughadh Muintre (An)"
S: "Roche Collection of Traditional Irish Music" [II/13/222]
L: 1/8
M: 4/4
R: hornpipe
K: D
FE | D2 DF A2 AB | FAdB AFDF | Eeed e2 ef | gefd BABc | 
d2 DF A2 AB | AFdB AFDF | G2 BG F2 AF | EFGA B2 :|
A2 | dcde dAFA | dcdB A2 FD | EFGA BABd | gefd B2 AB |
dcde dAFA | dcdB AFDF | G2 BG F2 AF | EFGA B2 :|
